svg/home_lightning_bolt.svg

<svg xmlns="http://www.w3.org/2000/svg" id="mdi-home-lightning-bolt" viewBox="0 0 24 24"><path d="M12 3L2 12H5V20H19V12H22L12 3M11.5 18V14H9L12.5 7V11H15L11.5 18Z" /></svg>

<svg xmlns="http://www.w3.org/2000/svg" viewBox="0 0 24 24"><path d="M12 3 2 12h3v8h14v-8h3zm-.5 15v-4H9l3.5-7v4H15z"/></svg>
